X: 17
T:Gan Ainm
M:4/4
R:Reel
S:Paddy O'Neill, The Moy, Tyrone (fiddle)
D:Private tape
H:Sean McGuire does this
N:As played
Z:Bernie Stocks
K:A
AB | ce(3.e.e.e fece | aecA EAcA | Bf~f2 gfdf | bfdB GBdB | ce(3.e.e.e fece |
aecA EAcA | dfBd ceAe | BAGB A4 :: ac'(3.c'.c'.c' ac'ea | ceAc EAce |
fB~B2 Bcde | fagb agfe | ac'(3.c'.c'.c' ac'ea | ceAc EAce | dfBd ceAe | BAGB A4 :|
<end>
<start>
